svgs/sharp-light/light-emergency.svg

<svg xmlns="http://www.w3.org/2000/svg" viewBox="0 0 448 512"><!--! Font Awesome Pro 6.4.2 by @fontawesome - https://fontawesome.com License - https://fontawesome.com/license (Commercial License) Copyright 2023 Fonticons, Inc. --><path d="M352 320V192c0-70.7-57.3-128-128-128S96 121.3 96 192V320H64V192c0-88.4 71.6-160 160-160s160 71.6 160 160V320H352zM32 384v64H416V384H32zm0-32H416h32v32 64 32H416 32 0V448 384 352H32zM160 192H128c0-53 43-96 96-96v32c-35.3 0-64 28.7-64 64z"/></svg>

<svg xmlns="http://www.w3.org/2000/svg" viewBox="0 0 448 512"><!--! Font Awesome Pro 6.6.0 by @fontawesome - https://fontawesome.com License - https://fontawesome.com/license (Commercial License) Copyright 2024 Fonticons, Inc. --><path d="M352 320l0-128c0-70.7-57.3-128-128-128S96 121.3 96 192l0 128-32 0 0-128c0-88.4 71.6-160 160-160s160 71.6 160 160l0 128-32 0zM32 384l0 64 384 0 0-64L32 384zm0-32l384 0 32 0 0 32 0 64 0 32-32 0L32 480 0 480l0-32 0-64 0-32 32 0zM160 192l-32 0c0-53 43-96 96-96l0 32c-35.3 0-64 28.7-64 64z"/></svg>
